lib/logo_tmp/nrk-logo-nrk-jazz-on-light.svg

<svg width="83" height="16" viewBox="0 0 83 16" fill="none" xmlns="http://www.w3.org/2000/svg">
<path d="M0 15.0001V1.00135H4.59339V15.0001H0ZM10.8428 3.22932L13.4844 15.0001H8.45737L5.30307 1.00135H8.12254C8.76907 0.992962 9.39641 1.22087 9.88691 1.6422C10.3782 2.04586 10.7158 2.60623 10.8428 3.22932ZM14.1744 15.0001V1.00135H18.7678V15.0001H14.1744ZM22.2372 6.32486C21.7422 6.32969 21.2552 6.20018 20.828 5.95021C20.4064 5.70655 20.0563 5.35637 19.8127 4.93478C19.5624 4.50747 19.4329 4.0203 19.4378 3.52512C19.4321 3.03295 19.5618 2.54869 19.8127 2.12525C20.0589 1.70824 20.4086 1.36186 20.828 1.11969C21.2553 0.870001 21.7423 0.740515 22.2372 0.745029C22.7292 0.73973 23.2133 0.869332 23.6369 1.11969C24.0521 1.36398 24.3981 1.71007 24.6424 2.12525C24.893 2.54881 25.0226 3.03299 25.0172 3.52512C25.0218 4.02026 24.8923 4.50735 24.6424 4.93478C24.4007 5.35452 24.0542 5.70441 23.6369 5.95021C23.2133 6.20105 22.7289 6.33069 22.2366 6.32486H22.2372ZM25.7269 15.0001V1.00135H30.3207V15.0001H25.7269ZM36.136 8.65135C36.1489 8.66494 36.2475 8.82594 36.4317 9.1344C36.6159 9.44285 36.8558 9.83721 37.1513 10.3174C37.447 10.7974 37.759 11.3067 38.0874 11.8454C38.4157 12.3841 38.7247 12.8935 39.0143 13.3735C39.3028 13.8535 39.6313 14.3957 40 15.0001H34.9531C34.6375 14.4875 34.3515 14.0241 34.0952 13.6101C33.8389 13.196 33.5665 12.7491 33.2778 12.2693C32.9884 11.79 32.7024 11.3234 32.4196 10.8695C32.1368 10.4155 31.8938 10.018 31.6905 9.67665C31.4863 9.33512 31.3449 9.10506 31.2663 8.98654C31.0713 8.69243 30.9559 8.35276 30.9315 8.00072C30.951 7.66284 31.0597 7.33622 31.2466 7.05404C31.3254 6.9226 31.47 6.68925 31.6803 6.35407C31.8906 6.01889 32.137 5.62131 32.4196 5.16126C32.7021 4.70121 32.9882 4.23129 33.2778 3.75152C33.5674 3.27175 33.8398 2.82152 34.0952 2.4009C34.3519 1.98072 34.6379 1.5141 34.9531 1.00103H40L36.0962 7.36949C35.9754 7.55857 35.9073 7.77648 35.8991 8.00072C35.9121 8.23612 35.9942 8.46245 36.1353 8.65135H36.136Z" fill="#0A2343"/>
<path d="M49.141 11.8136C49.1446 12.0423 49.1047 12.2697 49.0233 12.4833C48.9495 12.673 48.8357 12.8443 48.6896 12.9855C48.5379 13.128 48.357 13.2355 48.1596 13.3007C47.9317 13.3758 47.6929 13.4124 47.4531 13.409C47.296 13.409 47.1488 13.4024 47.0114 13.3893C46.874 13.3762 46.7366 13.3598 46.5992 13.3401C46.4618 13.3204 46.3245 13.2973 46.1871 13.2708C46.0497 13.2443 45.9091 13.2149 45.7651 13.1825C45.6212 13.1497 45.4772 13.1136 45.3333 13.0742L45.4903 14.8468C45.6735 14.8993 45.8502 14.9485 46.0203 14.9942C46.1904 15.0405 46.3604 15.0795 46.5305 15.1127C46.7057 15.1459 46.8827 15.1689 47.0605 15.1813C47.2437 15.1945 47.4465 15.2011 47.6689 15.2013C48.1227 15.2085 48.5752 15.152 49.0134 15.0336C49.3709 14.9362 49.707 14.7726 50.0046 14.5514C50.273 14.3483 50.5024 14.098 50.6818 13.8128C50.8601 13.5266 50.9925 13.2141 51.0743 12.8868C51.1606 12.5422 51.2034 12.1882 51.2019 11.833V1.00012H49.141V11.8136Z" fill="#481581"/>
<path d="M62.8212 13.7439C62.6777 13.757 62.5332 13.7353 62.4 13.6804C62.2667 13.6255 62.1486 13.5392 62.0557 13.4287C61.8737 13.1131 61.7981 12.747 61.8398 12.3848L61.8791 8.32743C61.8834 7.90208 61.8306 7.47809 61.7221 7.06689C61.6267 6.7062 61.4671 6.36577 61.251 6.06205C61.0325 5.76529 60.7552 5.51717 60.4364 5.33331C60.066 5.12242 59.6656 4.96974 59.249 4.88061C58.7397 4.7702 58.2196 4.71735 57.6985 4.72305C57.2851 4.72274 56.872 4.74895 56.462 4.80151C56.0745 4.85067 55.6909 4.92643 55.3138 5.02832C54.964 5.12337 54.62 5.23847 54.2834 5.37302L54.0478 7.04718C54.3749 6.92922 54.6857 6.83073 54.9801 6.75173C55.2745 6.67273 55.5591 6.60708 55.8339 6.55477C56.1031 6.50323 56.3751 6.46718 56.6484 6.44678C56.9162 6.42709 57.1812 6.41711 57.4433 6.41689C57.8435 6.40842 58.243 6.45482 58.6307 6.55477C58.9137 6.62582 59.1738 6.76832 59.3864 6.96872C59.5758 7.16343 59.7111 7.40449 59.7789 7.66793C59.8627 7.99264 59.9023 8.32723 59.8967 8.66259L59.8944 9.15664L57.6003 9.31256C56.8157 9.33459 56.0426 9.50834 55.3236 9.82432C54.7856 10.0607 54.3211 10.4384 53.9791 10.9175C53.6889 11.3439 53.5349 11.8488 53.5375 12.3651C53.5339 12.8497 53.6519 13.3274 53.8809 13.754C54.1211 14.192 54.4824 14.551 54.9212 14.7877C55.4566 15.0673 56.055 15.203 56.6582 15.1817C57.2233 15.1947 57.7859 15.1012 58.3167 14.9063C58.7756 14.726 59.1955 14.4585 59.5532 14.1184C59.6891 13.9878 59.8179 13.8501 59.9392 13.7058C59.9773 13.9098 60.0492 14.106 60.1519 14.2862C60.3269 14.5876 60.5959 14.8229 60.9173 14.9558C61.2727 15.0991 61.6532 15.1695 62.0361 15.1626C62.1539 15.1626 62.2684 15.159 62.3796 15.1528C62.4888 15.1462 62.5972 15.1296 62.7035 15.1032C62.8081 15.077 62.9026 15.0543 62.988 15.0343C63.0649 15.0172 63.1404 14.9941 63.2137 14.9653L63.4297 13.646C63.3213 13.6832 63.2095 13.7096 63.096 13.7248C63.0049 13.7368 62.9131 13.7431 62.8212 13.7439ZM59.5532 12.8575C59.3404 13.0264 59.1101 13.1718 58.8663 13.2912C58.6233 13.4096 58.366 13.4957 58.1008 13.5472C57.8259 13.6002 57.5466 13.6265 57.2667 13.6257C56.9468 13.635 56.6287 13.5745 56.3343 13.4484C56.0948 13.3443 55.8929 13.1691 55.7554 12.9465C55.6194 12.7104 55.5514 12.441 55.5591 12.1685C55.5401 11.84 55.6299 11.5145 55.8143 11.2425C56.028 10.9923 56.3176 10.8193 56.6386 10.7501C57.1401 10.6317 57.6546 10.5789 58.1695 10.5928H59.8882L59.8794 12.5476C59.7797 12.66 59.6706 12.7639 59.5532 12.8575Z" fill="#481581"/>
<path d="M72.713 6.33807L72.4775 4.93932H64.9014L64.6658 6.51502H70.3656L64.4895 13.645L64.7251 14.9843H72.733L72.9489 13.3889H66.9498L72.713 6.33807Z" fill="#481581"/>
<path d="M76.8417 13.3893L82.6055 6.33846L82.3697 4.93967H74.7935L74.5579 6.51538H80.2574L74.3814 13.6454L74.6169 14.9847H82.6248L82.8407 13.3893H76.8417Z" fill="#481581"/>
</svg>

<svg xmlns="http://www.w3.org/2000/svg" viewBox="0 0 83 16"><path fill="#0A2343" d="M0 15V1.001h4.593v14H0ZM10.843 3.23 13.484 15H8.457L5.303 1.001h2.82a2.655 2.655 0 0 1 1.764.641c.491.404.829.964.956 1.587ZM14.174 15V1.001h4.594v14h-4.594Zm8.063-8.675a2.737 2.737 0 0 1-1.409-.375 2.778 2.778 0 0 1-1.015-1.015 2.735 2.735 0 0 1-.375-1.41 2.685 2.685 0 0 1 .375-1.4 2.812 2.812 0 0 1 3.824-1.005c.415.244.761.59 1.005 1.005.251.424.38.908.375 1.4.005.495-.125.982-.375 1.41a2.8 2.8 0 0 1-1.005 1.015c-.424.251-.908.38-1.4.375ZM25.727 15V1.001h4.594v14h-4.594Zm10.409-6.349c.013.014.111.175.296.483.184.309.424.703.72 1.183a384.573 384.573 0 0 1 1.862 3.056c.289.48.617 1.023.986 1.627h-5.047l-.858-1.39c-.256-.414-.529-.86-.817-1.34-.29-.48-.576-.947-.858-1.4a71.337 71.337 0 0 1-.73-1.193 21.112 21.112 0 0 0-.424-.69A2.04 2.04 0 0 1 30.932 8c.019-.338.128-.665.315-.947.078-.131.223-.365.433-.7a216.7 216.7 0 0 0 1.598-2.603l.817-1.35.858-1.4H40l-3.904 6.368c-.12.19-.189.407-.197.632.013.235.095.461.236.65h.001Z"/><path fill="#481581" d="M49.141 11.814c.004.228-.036.456-.118.67-.074.189-.187.36-.333.502-.152.142-.333.25-.53.315a2.16 2.16 0 0 1-.707.108c-.157 0-.304-.007-.442-.02a8.766 8.766 0 0 1-.824-.118 10.32 10.32 0 0 1-.854-.197l.157 1.773c.183.052.36.101.53.147.17.046.34.085.51.119.176.033.353.056.53.068.184.014.386.02.609.02.454.008.906-.049 1.344-.167a2.97 2.97 0 0 0 .992-.483c.268-.203.497-.453.677-.738.178-.286.31-.599.392-.926.087-.345.13-.699.128-1.054V1H49.14v10.814ZM62.821 13.744a.892.892 0 0 1-.765-.315 1.7 1.7 0 0 1-.216-1.044l.04-4.058a4.753 4.753 0 0 0-.158-1.26 3.101 3.101 0 0 0-.471-1.005 2.665 2.665 0 0 0-.815-.729c-.37-.21-.77-.363-1.187-.452a6.96 6.96 0 0 0-1.55-.158c-.414 0-.827.026-1.237.079-.388.049-.771.124-1.148.226-.35.095-.694.21-1.03.345l-.236 1.674a11.688 11.688 0 0 1 1.786-.492 7.17 7.17 0 0 1 .814-.108c.268-.02.533-.03.795-.03.4-.009.8.038 1.188.138.283.07.543.213.755.414.19.194.325.435.393.699.084.325.123.66.118.995l-.003.494-2.294.156a6.083 6.083 0 0 0-2.276.511 3.267 3.267 0 0 0-1.345 1.094 2.55 2.55 0 0 0-.441 1.447c-.004.485.114.962.343 1.389.24.438.601.797 1.04 1.034.536.28 1.134.415 1.737.394a4.51 4.51 0 0 0 1.659-.276c.459-.18.879-.447 1.236-.788.136-.13.265-.268.386-.412.038.204.11.4.213.58.175.302.444.537.765.67.356.143.736.213 1.12.207.117 0 .231-.004.343-.01.109-.007.217-.023.323-.05l.285-.069a1.52 1.52 0 0 0 .226-.069l.216-1.319a1.74 1.74 0 0 1-.334.079 2.255 2.255 0 0 1-.275.019Zm-3.268-.886a3.777 3.777 0 0 1-.687.433c-.243.119-.5.205-.765.256a4.34 4.34 0 0 1-.834.079c-.32.009-.638-.051-.933-.178a1.28 1.28 0 0 1-.579-.502 1.476 1.476 0 0 1-.196-.777c-.019-.329.07-.655.255-.927a1.5 1.5 0 0 1 .825-.492 5.962 5.962 0 0 1 1.53-.157h1.72l-.01 1.955c-.1.112-.208.216-.326.31ZM72.713 6.338l-.235-1.399H64.9l-.235 1.576h5.7l-5.876 7.13.235 1.34h8.008l.216-1.596h-6l5.764-7.05ZM76.842 13.39l5.764-7.052-.236-1.398h-7.577l-.235 1.575h5.7l-5.877 7.13.236 1.34h8.008l.216-1.596h-6Z"/></svg>
